public/assets/gear-pinkpurple.svg

<svg width="238" height="238" viewBox="0 0 238 238" fill="none" xmlns="http://www.w3.org/2000/svg">
<path d="M119.079 81.1076C98.3732 81.1076 81.5727 97.9081 81.5727 118.629C81.5727 139.327 98.3732 156.158 119.079 156.158C139.785 156.158 156.467 139.327 156.467 118.629C156.467 97.9081 139.793 81.1076 119.079 81.1076ZM194.277 140.172L187.519 156.454L201.169 183.259L184.451 199.978L157.023 187.024L140.741 193.708L132.478 219.009L131.418 222.366H107.792L97.5654 193.805L81.2837 187.091L54.4415 200.682L37.73 183.978L50.6694 156.536L43.9625 140.269L15.3566 130.931V107.313L43.9329 97.0707L50.6397 80.8186L38.6193 57.089L37.0334 53.9764L53.7227 37.2871L81.1874 50.2191L97.4468 43.4974L105.703 18.2115L106.77 14.8618H130.396L140.63 43.453L156.867 50.1746L183.747 36.5535L200.451 53.2427L187.511 80.663L194.196 96.9521L222.854 106.275V129.886L194.285 140.165L194.277 140.172Z" fill="#BF4CA0"/>
</svg>

<svg width="238" height="238" fill="none" xmlns="http://www.w3.org/2000/svg"><path d="M119.079 81.108c-20.706 0-37.506 16.8-37.506 37.521 0 20.698 16.8 37.529 37.506 37.529s37.388-16.831 37.388-37.529c0-20.72-16.674-37.521-37.388-37.521Zm75.198 59.064-6.758 16.282 13.65 26.805-16.718 16.719-27.428-12.954-16.282 6.684-8.263 25.301-1.06 3.357h-23.626l-10.227-28.561-16.281-6.714-26.843 13.591-16.711-16.704 12.94-27.442-6.708-16.267-28.605-9.338v-23.618l28.576-10.242 6.707-16.252-12.02-23.73-1.587-3.113 16.69-16.689L81.187 50.22l16.26-6.722 8.256-25.285 1.067-3.35h23.626l10.234 28.591 16.237 6.722 26.88-13.621 16.704 16.689-12.94 27.42 6.685 16.29 28.658 9.322v23.611l-28.569 10.279-.008.007Z" fill="#BF4CA0"/></svg>
